X:5025
T:The Stolen Moment
M:6/8
L:1/8
Q:180
C:Aidan Crossey
R:Jig
K:G
|:G3 B2G|A3 c2A|G3 B2G| A2G EFG|
c3 e2c|B3 d2B|c2A FED|A2G G3:||
|:g3 bag|f3 agf|e3 gfe|d3 d2B|
c3 edc|B3 dcB|1 A3 cBA|G2A B2d:||
|2 A2D F2A|G3 z3|
